X:1
T:Blue Moon of Kentucky
C:Bill Monroe
N: Transcribed by Richard Schwartz
R:bluegrass
L:1/8
Q:1/4=210
M:4/4
K:D
A2 | "D"A4 B2 A2 | "D7"F2 D2 E2 F2 | "G"D2 B,6 | z6 B,2 | "D"A,3A, D2 F2 | 
A3A A2 F2 | "A"E8 | z6 A2 | "D"B2 A2 A2 A2 | "D7"F2 D2 E2 F2 | "G"D2 B,6 | 
z6 B,2 | "D"A,3A, D2 F2 | "A"E3E F2 E2 | "D"D8 | z4 E2 F2 | "G"G3G G2 G2 | 
B6 B2 | "D"A3A A2 F2 | A6 FF | "G"G2 G3G G2 | B6 B2 | "D"A3A F2 D2 | 
"A"E6 A2 | "D"B2 A2 A2 A2 | "D7"F2 D2 E2 F2 | "G"D2 B,6 | z6 B,2 | 
"D"A,3A, D2 F2 | "A"E3E F2 E2 | "D"D8 | z8 | 

